X: 206
T: Christmas in July (reel)
N: 034043
C: BB
L: 1/8
M: 4/4
R: reel
Q: 1/4=175
K: D
B/c/ | "D"d2 BA FADF | "Em"EB,B,E GEEG | "Bm"F2 BF ABdf | "G"g2 ed "A"cdec |
"D"d2 BA FADF | "Em"EB,B,E GEEG | "D"FAdA "G"Bged | "A" ceAc "D" d3 :|
e | "D" fd ~d2 "A7" ecAc | "D" dfed "Em" BAGE | "Bm" FB ~B2 "A"Aceg | "D"fdcd "Bm"B3 e|
"D"fd ~d2 "A7" ecAc | "D" dfed "A" cedc | "Bm" BF ~F2 ABdf | "A7" ecAc "D"d3 :|
%%%%%%%%%%%%%%%%%%%%%%%%%%%%%%%%%%%%%%%%%%%%
